X: 21795
T: King's, The
R: reel
M: 4/4
K: Adorian
A,2 EA, FA,EA,|~A,2 ED CA,A,G,|
A,2 EA, FA,EF|1 G2 DC B,G,G,B,:|2 G2 DC B,G,G,d||
^cA (3AAA eaed|^cA (3AAA BGBd|^cA (3AAA eaef|ged=c BGBd|
^cA (3AAA eaed|^cA (3AAA BGBd|=c2 dc B2 dB|AGED B,G,G,B,||

